X:1
T:Title
%%score { 1 | 2 } { ( 3 5 ) | 4 }
L:1/8
Q:1/4=112
M:4/4
K:C
V:1 treble nm="Grand Piano, Soprano"
V:2 treble 
V:3 bass nm="Choir Pad, When Jesus Shall Appear"
V:5 bass 
V:4 bass 
V:1
 EF G2 e2 d2 | c2 E2 F2 G2 | A2 B2 d2 c2 | A2 B6 | B2 d2 c2 B2 | A2 d2 c2 B2 | A2 G2- GA G2 | %7
w: By~Bentley~DeForest~Ackley * * * *|||||||
 F2 E6 | EF G2 e2 d2 | c2 E2 F2 G2 | A2 B2 d2 c2 | A2 B6 | d2 d2 d2 d2 | d2 d2 d2 d2 | %14
w: |||||||
 e2 d2- dc B2 | A2 G6 | G2 e6 | c2 A6 | d2 c4 B2- | B2 c6 | ED A2 A2 AB | c2 B6 | ^G2 B2 B2 dc | %23
w: |||||||||
 B2 c6 | c2 c2- cc c2 | c2 c2 d2 d2 | G2 c2 c2 c2 | c2 c6 | A2 G2 G2 G2 | G2 G6 | A2 G2 e2 g2- | %31
w: ||||||||
 gc c6- | c2 z2 z4 |] %33
w: ||
V:2
 CD E2 G2 F2 | E2 C2 D2 E2 | E2 E2 E2 E2 | E2 F6 | F2 F2 F2 F2 | F2 F2 F2 F2 | F2 E2- EF E2 | %7
 D2 C6 | CD E2 G2 F2 | E2 C2 D2 E2 | E2 E2 E2 E2 | E2 D6 | D2 D2 D2 D2 | D2 D2 D2 G2 | %14
 G2 G2- G^F F2 | D2 D6 | F2 E6 | E2 F6 | A2 G4 G2 | F2 E6 | z2 C2 C2 CD | E2 E6 | E2 ^G2 G2 BA | %23
 ^G2 A4 _B2 | _B2 A2- AA G2 | G2 ^F2 F2 G2 | F2 E2 E2 F2 | E2 F6 | F2 E2 E2 DE | F2 E2 F2 E2 | %30
 _E2 =E2 G2 [Fd]2- | [Fd]E E6- | E2 z2 z4 |] %33
V:3
 G,2 C2 C2 G,2 | G,2 G,2 G,2 C2 | C2 G,2 G,2 G,2 | C2 D6 | D2 B,2 C2 D2 | D2 B,2 C2 D2 | %6
 B,2 C2- CC[K:bass] [G,B,]2 | G,2 G,6 | G,2 C2 C2 G,2 | G,2 G,2 G,2 C2 | C2 G,2 G,2 G,2 | G,2 G,6 | %12
 G,2 ^F,G, A,B, C2 | ^F,2 G,A, B,[K:treble]C D2 | C2 B,2- B,[K:bass]A, D2 | z2 [G,B,]6 | %16
 D,2 z2[K:treble] C2 C2 | z4 D2 D2 | F2 E2 E2 D2 | D2 C6 | z4[K:bass] E,2 E,2 | A,2 ^G,2 G,2 G,2 | %22
 z4[K:treble] E2 E2 | E2 E2 E2 E2 | E2 F2- FF C2 | C2[K:bass] A,2 A,2 B,2 | %26
 B,2 C2[K:treble] C2 C2 | _B,2 A,6 | C2 C2 C2 B,C | D2 C2 B,2 C2 | C2 C2 C2 B,2- | B,C C6- | %32
 C2 z2 z4 |] %33
V:4
 C,2 C,2 C,2 C,2 | C,2 C,2 C,2 C,2 | C,2 C,2 C,2 C,2 | C,2 G,6 | G,2 G,2 G,2 G,2 | %5
 G,2 G,2 G,2 G,2 | G,2 G,2- G,G,G,,A,, | B,,G,, C,6 | C,2 C,2 C,2 C,2 | C,2 C,2 C,2 C,2 | %10
 C,2 C,2 C,2 C,2 | C,2 G,,6 | B,,2 D,E, ^F,G, A,2 | D,2 E,^F, G,A, B,2 | C,2 D,2- D,D, D,2 | %15
 D,2 G,,2 G,,2 E,,2 | D,,2 z2 C,2 C,2 | z4 F,2 F,2 | F,2 G,2 G,2 G,2 | G,2 C,6 | z4 A,,2 A,,2 | %21
 A,,2 E,2 E,2 E,2 | z4 E,2 E,2 | E,2 A,2 A,2 G,2 | G,2 F,2- F,F, E,2 | E,2 D,2 D,2 G,2 | %26
 G,2 C,2 _B,2 A,2 | G,2 F,6 | F,2 G,2 G,2 [G,,G,]2 | [G,,G,]2 C,2 D,2 E,2 | ^F,2 G,2 G,2 G,2- | %31
 G,[C,G,] [C,G,]6- | [C,G,]2 z2 z4 |] %33
V:5
 x8 | x8 | x8 | x8 | x8 | x8 | x6[K:bass] x2 | x8 | x8 | x8 | x8 | x8 | x8 | x5[K:treble] x3 | %14
 x5[K:bass] x3 | C2 z2 F,2 E,2 | x4[K:treble] x4 | x8 | x8 | x8 | x4[K:bass] x4 | x8 | %22
 x4[K:treble] x4 | x8 | x8 | x2[K:bass] x6 | x4[K:treble] x4 | x8 | x8 | x8 | x8 | x8 | x8 |] %33

